X: 40003
T: Three Men On A White Horse
R: reel
M: 4/4
K: Amajor
agaf ecAc|defd e2ef/g/|agae (3fgf ed|cABc A2ef/g/|
agaf ecAc|defd efed|cBAc BAGA|BAGB A2AB||
|:c2cA BAFA|cBAF A2AB|c2cA BAFA|BAGB A2AB:|
|:c2e2 A3B|c2e2 A3B|c2e2- e2e2|1 BAGB A2AB:|2 BAGB A2ef/g/||

